Sources/FrostedUI/Resources/Icons.xcassets/dashboard16.imageset/dashboard-16.svg

<svg width="16" height="16" viewBox="0 0 16 16" fill="none" xmlns="http://www.w3.org/2000/svg" data-fui-icon="true">
  <path
    d="M8 0.25C9.07693 0.25 9.92224 0.249349 10.6045 0.295898C11.2934 0.342907 11.8708 0.440345 12.4062 0.662109C13.7335 1.21187 14.7881 2.26651 15.3379 3.59375C15.5597 4.12915 15.6571 4.70655 15.7041 5.39551C15.7507 6.07776 15.75 6.92307 15.75 8C15.75 9.07693 15.7507 9.92224 15.7041 10.6045C15.6571 11.2935 15.5597 11.8708 15.3379 12.4062C14.7881 13.7335 13.7335 14.7881 12.4062 15.3379C11.8708 15.5597 11.2935 15.6571 10.6045 15.7041C9.92224 15.7507 9.07693 15.75 8 15.75C6.92307 15.75 6.07776 15.7507 5.39551 15.7041C4.70655 15.6571 4.12915 15.5597 3.59375 15.3379C2.26651 14.7881 1.21187 13.7335 0.662109 12.4062C0.440345 11.8708 0.342907 11.2934 0.295898 10.6045C0.249349 9.92224 0.25 9.07693 0.25 8C0.25 6.92307 0.249349 6.07776 0.295898 5.39551C0.342907 4.70655 0.440345 4.12915 0.662109 3.59375C1.21187 2.26651 2.26651 1.21187 3.59375 0.662109C4.12915 0.440345 4.70655 0.342907 5.39551 0.295898C6.07776 0.249349 6.92307 0.25 8 0.25ZM8 1.75C6.90276 1.75 6.11734 1.75074 5.49805 1.79297C4.88558 1.83476 4.49011 1.91446 4.16797 2.04785C3.20828 2.44537 2.44537 3.20828 2.04785 4.16797C1.91446 4.49011 1.83476 4.88558 1.79297 5.49805C1.75074 6.11734 1.75 6.90276 1.75 8C1.75 9.09724 1.75074 9.88266 1.79297 10.502C1.83476 11.1144 1.91446 11.5099 2.04785 11.832C2.44537 12.7917 3.20828 13.5546 4.16797 13.9521C4.49011 14.0855 4.88558 14.1652 5.49805 14.207C6.11734 14.2493 6.90276 14.25 8 14.25C9.09724 14.25 9.88266 14.2493 10.502 14.207C11.1144 14.1652 11.5099 14.0855 11.832 13.9521C12.7917 13.5546 13.5546 12.7917 13.9521 11.832C14.0855 11.5099 14.1652 11.1144 14.207 10.502C14.2493 9.88266 14.25 9.09724 14.25 8C14.25 6.90276 14.2493 6.11734 14.207 5.49805C14.1652 4.88558 14.0855 4.49011 13.9521 4.16797C13.5546 3.20828 12.7917 2.44537 11.832 2.04785C11.5099 1.91446 11.1144 1.83476 10.502 1.79297C9.88266 1.75074 9.09724 1.75 8 1.75ZM10.9697 6.30273C11.2626 6.01008 11.7374 6.01009 12.0303 6.30273C12.3231 6.59557 12.323 7.07038 12.0303 7.36328L9.66797 9.72559C9.11477 10.2784 8.21817 10.2785 7.66504 9.72559L6.33301 8.39355L5.03027 9.69629C4.73738 9.98918 4.26262 9.98918 3.96973 9.69629C3.67717 9.40337 3.67695 8.92852 3.96973 8.63574L5.33203 7.27441L5.43945 7.17676C5.95871 6.75352 6.70833 6.75342 7.22754 7.17676L7.33496 7.27441L8.66602 8.60547L10.9697 6.30273Z"
    fill="currentColor"
  />
</svg>

<svg xmlns="http://www.w3.org/2000/svg" width="16" height="16" fill="none" data-fui-icon="true" viewBox="0 0 16 16"><path fill="currentColor" d="M8 .25c1.077 0 1.922 0 2.605.046.688.047 1.266.144 1.801.366a5.42 5.42 0 0 1 2.932 2.932c.222.535.32 1.113.366 1.802.047.682.046 1.527.046 2.604s0 1.922-.046 2.605c-.047.688-.144 1.266-.366 1.801a5.42 5.42 0 0 1-2.932 2.932c-.535.222-1.113.32-1.802.366-.682.047-1.527.046-2.604.046s-1.922 0-2.604-.046c-.69-.047-1.267-.144-1.802-.366a5.42 5.42 0 0 1-2.932-2.932c-.222-.535-.32-1.113-.366-1.802C.249 9.923.25 9.078.25 8s0-1.922.046-2.604c.047-.69.144-1.267.366-1.802A5.42 5.42 0 0 1 3.594.662C4.129.44 4.707.342 5.396.296 6.078.249 6.923.25 8 .25m0 1.5c-1.097 0-1.883 0-2.502.043-.612.042-1.008.121-1.33.255a3.92 3.92 0 0 0-2.12 2.12c-.134.322-.213.718-.255 1.33-.042.62-.043 1.405-.043 2.502s0 1.883.043 2.502c.042.612.121 1.008.255 1.33a3.92 3.92 0 0 0 2.12 2.12c.322.133.718.213 1.33.255.62.042 1.405.043 2.502.043s1.883 0 2.502-.043c.612-.042 1.008-.122 1.33-.255a3.92 3.92 0 0 0 2.12-2.12c.133-.322.213-.718.255-1.33.042-.62.043-1.405.043-2.502s0-1.883-.043-2.502c-.042-.612-.122-1.008-.255-1.33a3.92 3.92 0 0 0-2.12-2.12c-.322-.134-.718-.213-1.33-.255C9.882 1.751 9.097 1.75 8 1.75m2.97 4.553a.75.75 0 0 1 1.06 1.06L9.668 9.726a1.417 1.417 0 0 1-2.003 0L6.333 8.394 5.03 9.696a.75.75 0 1 1-1.06-1.06l1.362-1.362.107-.097a1.42 1.42 0 0 1 1.789 0l.107.097 1.331 1.331z"/></svg>
